src/assets/min.svg

<svg width="141" height="143" viewBox="0 0 141 143" fill="none" xmlns="http://www.w3.org/2000/svg">
<g filter="url(#filter0_d_186_25008)">
<path fill-rule="evenodd" clip-rule="evenodd" d="M108.994 1.39395C101.291 3.46541 97.5767 12.1834 101.372 19.2825C102.264 20.9517 104.613 23.3454 106.118 24.1203C106.755 24.4479 107.919 24.9198 108.705 25.169C110.278 25.6676 110.258 25.6824 107.276 26.2504C98.9294 27.8402 91.6102 34.2738 88.802 42.4898C88.325 43.8849 87.8593 45.6734 87.7671 46.4643L87.5992 47.9023L89.1227 48.9048C91.4576 50.4415 95.9459 55.076 97.6718 57.7324C100.362 61.873 102.134 66.6702 102.722 71.4022C102.927 73.0576 103 77.5009 102.943 84.9121L102.858 95.9554L101.999 98.4239C100.954 101.422 99.2677 104.2 97.2248 106.288L95.6977 107.849L95.7702 119.618C95.8407 131.04 95.8586 131.407 96.3785 132.104C96.6732 132.498 97.237 133.062 97.6315 133.357C98.3318 133.88 98.6753 133.894 111.989 133.964L125.63 134.036L126.678 133.446C127.298 133.098 127.929 132.462 128.22 131.891C128.691 130.968 128.713 130.054 128.713 111.175V91.4243L130.195 90.7017C133.35 89.1629 136.026 85.7441 136.759 82.3137C136.981 81.2746 137.04 76.1697 136.975 63.6051C136.873 43.8433 136.955 44.6267 134.446 39.5697C131.952 34.5417 128.087 30.68 123.126 28.2608C120.668 27.0624 117.036 25.928 115.656 25.928C114.452 25.928 114.706 25.591 116.34 25.0201C120.07 23.7165 123.044 20.6004 124.152 16.8335C124.686 15.0188 124.692 11.9526 124.167 9.96718C122.453 3.49893 115.589 -0.379729 108.994 1.39395ZM67.5909 26.332C64.5377 27.0721 61.4059 29.3259 59.9294 31.8451C57.7891 35.4972 57.6751 40.6135 59.6473 44.4799C60.3522 45.8612 62.5687 48.1681 63.9942 49.0032C64.6313 49.3769 66.0363 49.9439 67.1159 50.2637C68.9551 50.8084 69.0114 50.8458 68.0079 50.8588C66.4915 50.8785 62.3668 51.9704 60.3442 52.8874C53.3198 56.0725 47.7766 62.9607 46.236 70.4186C46.0089 71.5183 45.8231 72.5145 45.8231 72.6328C45.8231 72.751 46.6991 73.4741 47.7696 74.2396C53.0439 78.0118 57.4576 84.0245 59.5584 90.2999C60.9257 94.3836 61.2201 96.8807 61.0912 103.296C60.9904 108.308 60.9111 109.139 60.3917 110.636C59.3635 113.601 57.8037 116.271 55.9224 118.285L54.1381 120.196V125.771C54.1381 131.135 54.1604 131.38 54.7279 132.23C55.952 134.063 55.5911 134.021 70.5081 134.021C85.4251 134.021 85.0642 134.063 86.2883 132.23L86.8782 131.347L86.8792 117.679L86.88 104.011L88.6152 103.113C92.325 101.195 94.6989 97.6917 95.2259 93.357C95.6741 89.6732 95.3659 72.8529 94.8049 70.3633C92.7028 61.0365 85.4049 53.6069 76.1711 51.393C74.9857 51.109 73.5483 50.8658 72.9766 50.8525L71.9373 50.8286L73.276 50.5038C79.553 48.9814 83.8105 42.7083 82.7695 36.5165C81.5564 29.3002 74.6004 24.6329 67.5909 26.332ZM25.3554 51.5354C19.9829 52.9819 16.4373 57.7415 16.4358 63.5097C16.434 69.1358 20.1858 73.9923 25.6243 75.4037L26.9846 75.7568L25.6854 75.9346C15.7992 77.286 7.75108 84.2246 4.87385 93.8767C4.24945 95.9715 4.16396 96.7487 4.05275 101.332C3.93998 105.98 3.97791 106.61 4.46746 108.217C5.45849 111.472 7.61908 114.062 10.6504 115.629L12.3017 116.483L12.3025 123.723C12.3035 130.615 12.33 131.01 12.8539 131.942C13.1566 132.481 13.8501 133.172 14.3952 133.479C15.3785 134.031 15.497 134.035 29.0269 133.964C42.341 133.894 42.6845 133.88 43.3848 133.357C43.7792 133.062 44.3431 132.498 44.6377 132.104C45.145 131.425 45.1777 130.99 45.2528 123.917L45.332 116.447L46.7089 115.772C48.8698 114.712 51.125 112.454 52.189 110.284C52.6897 109.263 53.2162 107.798 53.3588 107.028C53.7023 105.177 53.6896 99.7546 53.3362 97.2084C51.8364 86.4054 43.4801 77.9005 32.5712 76.0741L30.6224 75.748L32.0242 75.3886C35.0314 74.6182 38.1713 72.1606 39.6433 69.4253C43.4718 62.3111 39.4952 53.1888 31.7917 51.4146C30.1565 51.0381 26.9817 51.0976 25.3554 51.5354Z" fill="#00AACB"/>
</g>
<defs>
<filter id="filter0_d_186_25008" x="0" y="0.963867" width="141" height="141.072" filterUnits="userSpaceOnUse" color-interpolation-filters="sRGB">
<feFlood flood-opacity="0" result="BackgroundImageFix"/>
<feColorMatrix in="SourceAlpha" type="matrix" values="0 0 0 0 0 0 0 0 0 0 0 0 0 0 0 0 0 0 127 0" result="hardAlpha"/>
<feOffset dy="4"/>
<feGaussianBlur stdDeviation="2"/>
<feComposite in2="hardAlpha" operator="out"/>
<feColorMatrix type="matrix" values="0 0 0 0 0 0 0 0 0 0 0 0 0 0 0 0 0 0 0.25 0"/>
<feBlend mode="normal" in2="BackgroundImageFix" result="effect1_dropShadow_186_25008"/>
<feBlend mode="normal" in="SourceGraphic" in2="effect1_dropShadow_186_25008" result="shape"/>
</filter>
</defs>
</svg>

<svg xmlns="http://www.w3.org/2000/svg" width="141" height="143" fill="none" viewBox="0 0 141 143"><g filter="url(#a)"><path fill="#00aacb" fill-rule="evenodd" d="M108.994 1.394c-7.703 2.071-11.417 10.79-7.622 17.889.892 1.669 3.241 4.062 4.746 4.837.637.328 1.801.8 2.587 1.049 1.573.499 1.553.513-1.429 1.081-8.347 1.59-15.666 8.024-18.474 16.24-.477 1.395-.943 3.183-1.035 3.974l-.168 1.438 1.524 1.003c2.335 1.536 6.823 6.171 8.549 8.827 2.69 4.141 4.462 8.938 5.05 13.67.205 1.656.278 6.099.221 13.51l-.085 11.043-.859 2.469c-1.045 2.998-2.731 5.776-4.774 7.864l-1.527 1.561.072 11.769c.07 11.422.089 11.789.609 12.486.294.394.858.958 1.252 1.253.7.523 1.044.537 14.358.607l13.641.072 1.048-.59c.62-.348 1.251-.984 1.542-1.555.471-.923.493-1.837.493-20.716v-19.75l1.482-.723c3.155-1.54 5.831-4.958 6.564-8.388.222-1.04.281-6.144.216-18.709-.102-19.762-.02-18.978-2.529-24.035-2.494-5.028-6.359-8.89-11.32-11.31-2.458-1.198-6.09-2.332-7.47-2.332-1.204 0-.95-.337.684-.908 3.73-1.303 6.704-4.42 7.812-8.186.534-1.815.54-4.881.015-6.867-1.714-6.468-8.578-10.347-15.173-8.573M67.591 26.332c-3.053.74-6.185 2.994-7.662 5.513-2.14 3.652-2.254 8.769-.282 12.635.705 1.381 2.922 3.688 4.347 4.523.637.374 2.042.94 3.122 1.26 1.84.545 1.895.583.892.596-1.516.02-5.641 1.111-7.664 2.028-7.024 3.185-12.567 10.074-14.108 17.532-.227 1.1-.413 2.096-.413 2.214s.876.841 1.947 1.607c5.274 3.772 9.688 9.785 11.788 16.06 1.368 4.084 1.662 6.58 1.533 12.996-.1 5.012-.18 5.843-.7 7.34-1.027 2.965-2.587 5.635-4.469 7.649l-1.784 1.911v5.575c0 5.364.022 5.609.59 6.459 1.224 1.833.863 1.791 15.78 1.791s14.556.042 15.78-1.791l.59-.883.001-13.668.001-13.668 1.735-.898c3.71-1.918 6.084-5.421 6.61-9.756.45-3.684.14-20.504-.42-22.994-2.102-9.327-9.4-16.756-18.634-18.97-1.185-.284-2.623-.527-3.194-.54l-1.04-.024 1.339-.325c6.277-1.523 10.535-7.796 9.493-13.987C81.557 29.3 74.6 24.633 67.592 26.332M25.355 51.535c-5.372 1.447-8.918 6.207-8.92 11.975a12.23 12.23 0 0 0 9.19 11.894l1.36.353-1.3.178C15.8 77.286 7.751 84.225 4.874 93.877c-.625 2.095-.71 2.872-.821 7.455-.113 4.648-.075 5.278.414 6.885.991 3.255 3.152 5.845 6.183 7.412l1.652.854v7.24c.002 6.892.028 7.287.552 8.219.303.539.996 1.23 1.541 1.537.984.552 1.102.556 14.632.485 13.314-.07 13.657-.084 14.358-.607a7.5 7.5 0 0 0 1.253-1.253c.507-.679.54-1.114.615-8.187l.079-7.47 1.377-.675c2.16-1.06 4.416-3.318 5.48-5.488.5-1.021 1.027-2.486 1.17-3.256.343-1.851.33-7.273-.023-9.82-1.5-10.803-9.856-19.308-20.765-21.134l-1.949-.326 1.402-.36c3.007-.77 6.147-3.227 7.62-5.963 3.828-7.114-.149-16.236-7.852-18.01-1.636-.377-4.81-.317-6.437.12" clip-rule="evenodd"/></g><defs><filter id="a" width="141" height="141.072" x="0" y=".964" color-interpolation-filters="sRGB" filterUnits="userSpaceOnUse"><feFlood flood-opacity="0" result="BackgroundImageFix"/><feColorMatrix in="SourceAlpha" result="hardAlpha" values="0 0 0 0 0 0 0 0 0 0 0 0 0 0 0 0 0 0 127 0"/><feOffset dy="4"/><feGaussianBlur stdDeviation="2"/><feComposite in2="hardAlpha" operator="out"/><feColorMatrix values="0 0 0 0 0 0 0 0 0 0 0 0 0 0 0 0 0 0 0.25 0"/><feBlend in2="BackgroundImageFix" result="effect1_dropShadow_186_25008"/><feBlend in="SourceGraphic" in2="effect1_dropShadow_186_25008" result="shape"/></filter></defs></svg>
